images_sukapura_svg/cmd/sc_printpreview.svg

<svg viewBox="0 0 16 16" xmlns="http://www.w3.org/2000/svg" xmlns:xlink="http://www.w3.org/1999/xlink"><radialGradient id="a" cx="11" cy="4.428571" gradientTransform="matrix(1 0 0 1.3999997 0 -3.199998)" gradientUnits="userSpaceOnUse" r="5.000001"><stop offset="0" stop-color="#d7d7d7"/><stop offset=".29999998" stop-color="#f7f7f7"/><stop offset="1" stop-color="#fff"/></radialGradient><linearGradient id="b" gradientUnits="userSpaceOnUse" x1="10" x2="11.5000006" y1="4" y2="2.4999994"><stop offset="0" stop-color="#fff"/><stop offset=".77967989" stop-color="#f1f1f1"/><stop offset="1" stop-color="#d5d5d5"/></linearGradient>




     /&amp;amp;gt;
 <path d="m3 0c-.554 0-1 .446-1 1v14c0 .554.446 1 1 1h10c.221483 0 .414716-.08606.580078-.207031l-.796875-.792969h-2.28125-.001953-7.5v-14h6v-1zm10 5v1.765625c.38424.2586333.711424.5861819 1 .9472656v-2.7128906z" fill="#98989d"/><path d="m10.5 7a3.5 3.5 0 0 0 -3.5 3.5 3.5 3.5 0 0 0 3.5 3.5 3.5 3.5 0 0 0 2.035156-.65625l2.501953 2.488281a.56140807.56140807 0 1 0 .791016-.796875l-2.498047-2.482422a3.5 3.5 0 0 0 .669922-2.052734 3.5 3.5 0 0 0 -3.5-3.5zm0 1a2.5 2.5 0 0 1 2.5 2.5 2.5 2.5 0 0 1 -2.5 2.5 2.5 2.5 0 0 1 -2.5-2.5 2.5 2.5 0 0 1 2.5-2.5z" fill="#0a84ff"/><circle cx="10.5" cy="10.5" fill="#fff" r="2.5"/><path d="m3 1v14h7.5c-.30918 0-.6121674-.031552-.9042969-.091797-2.0449062-.421713-3.5957031-2.243946-3.5957031-4.408203 0-2.4734367 2.0265633-4.5 4.5-4.5.275913 0 .544039.0336302.806641.0820312.08288.0152201.162869.0349485.24414.0546876.190071.046272.374699.1041016.554688.1738281.07451.028826.148133.0572117.220703.0898437.228613.1028198.449469.2176047.65625.3554688.0056.0037.012038.0060356.017578.0097656v-3.0605469l-2.695312-2.7050781zm7.5 8c-.7352378 0-1.3329389.5041672-1.4707031 1.193359-.0196806.098456-.0292969.201607-.0292969.306641 0 .840272.6597282 1.5 1.5 1.5.840272 0 1.5-.659728 1.5-1.5 0-.8402718-.659728-1.5-1.5-1.5zm1.724609 5.445312c-.560971.243826-1.104413.553767-1.722656.554688h2.28125z" fill="url(#a)"/><path d="m9 0v1 3.5c0 .277.223.5.5.5h3.5 1v-.5-.8632812l-3.636719-3.6367188h-.863281zm1 1 3 3h-3z" fill="#98989d"/><path d="m10 1 3 3h-3z" fill="url(#b)"/></svg>

<?xml version="1.0" encoding="UTF-8" standalone="no"?>
<svg
   xmlns:dc="http://purl.org/dc/elements/1.1/"
   xmlns:cc="http://creativecommons.org/ns#"
   xmlns:rdf="http://www.w3.org/1999/02/22-rdf-syntax-ns#"
   xmlns:svg="http://www.w3.org/2000/svg"
   xmlns="http://www.w3.org/2000/svg"
   xmlns:xlink="http://www.w3.org/1999/xlink"
   xmlns:sodipodi="http://sodipodi.sourceforge.net/DTD/sodipodi-0.dtd"
   xmlns:inkscape="http://www.inkscape.org/namespaces/inkscape"
   viewBox="0 0 16 16"
   version="1.1"
   id="svg28"
   sodipodi:docname="sc_printpreview.svg"
   inkscape:version="0.92.3 (2405546, 2018-03-11)"><metadata
   id="metadata34">
  <rdf:RDF>
    <cc:Work
       rdf:about="">
      <dc:format>image/svg+xml</dc:format>
      <dc:type
         rdf:resource="http://purl.org/dc/dcmitype/StillImage" />
    </cc:Work>
  </rdf:RDF>
</metadata>
<defs
   id="defs32">
  <linearGradient
     gradientTransform="translate(-20.881356,-3.6610169)"
     id="a-9"
     gradientUnits="userSpaceOnUse"
     x1="14"
     x2="13.79661"
     y1="22"
     y2="2.1355929">
    <stop
       offset="0"
       stop-color="#0040dd"
       id="stop2206" />
    <stop
       offset="1"
       stop-color="#0a84ff"
       id="stop2208" />
  </linearGradient>
  <linearGradient
     inkscape:collect="always"
     xlink:href="#a-9"
     id="linearGradient859"
     x1="7.1355934"
     y1="15.972091"
     x2="7.4516802"
     y2="6.8195486"
     gradientUnits="userSpaceOnUse" />
</defs>
<sodipodi:namedview
   pagecolor="#ffffff"
   bordercolor="#666666"
   borderopacity="1"
   objecttolerance="10"
   gridtolerance="10"
   guidetolerance="10"
   inkscape:pageopacity="0"
   inkscape:pageshadow="2"
   inkscape:window-width="1366"
   inkscape:window-height="685"
   id="namedview30"
   showgrid="true"
   inkscape:zoom="10.429825"
   inkscape:cx="15.502419"
   inkscape:cy="-3.5874379"
   inkscape:window-x="0"
   inkscape:window-y="0"
   inkscape:window-maximized="1"
   inkscape:current-layer="svg28">
  <inkscape:grid
     type="xygrid"
     id="grid861" />
</sodipodi:namedview>
<radialGradient
   id="a"
   cx="11"
   cy="4.428571"
   gradientTransform="matrix(1 0 0 1.3999997 0 -3.199998)"
   gradientUnits="userSpaceOnUse"
   r="5.000001">
  <stop
     offset="0"
     stop-color="#d7d7d7"
     id="stop2" />
  <stop
     offset=".29999998"
     stop-color="#f7f7f7"
     id="stop4" />
  <stop
     offset="1"
     stop-color="#fff"
     id="stop6" />
</radialGradient>
<linearGradient
   id="b"
   gradientUnits="userSpaceOnUse"
   x1="10"
   x2="11.5000006"
   y1="4"
   y2="2.4999994">
  <stop
     offset="0"
     stop-color="#fff"
     id="stop9" />
  <stop
     offset=".77967989"
     stop-color="#f1f1f1"
     id="stop11" />
  <stop
     offset="1"
     stop-color="#d5d5d5"
     id="stop13" />
</linearGradient>





     /&amp;amp;gt;
 <path
   d="m3 0c-.554 0-1 .446-1 1v14c0 .554.446 1 1 1h10c.221483 0 .414716-.08606.580078-.207031l-.796875-.792969h-2.28125-.001953-7.5v-14h6v-1zm10 5v1.765625c.38424.2586333.711424.5861819 1 .9472656v-2.7128906z"
   fill="#98989d"
   id="path16" />
<path
   style="fill:url(#linearGradient859);fill-opacity:1"
   d="M 10.5 7 C 8.5670034 7 7 8.5670034 7 10.5 C 7 12.432997 8.5670034 14 10.5 14 C 11.088306 13.999114 11.661817 13.843025 12.173828 13.5625 L 14.431641 15.851562 C 14.626193 16.048738 14.941496 16.050021 15.138672 15.855469 L 15.851562 15.152344 C 16.048738 14.957791 16.050021 14.642488 15.855469 14.445312 L 13.582031 12.142578 C 13.851557 11.638786 13.99892 11.076238 14 10.5 C 14 8.5670034 12.432997 7 10.5 7 z M 10.5 8 C 11.880712 8 13 9.1192881 13 10.5 C 13 11.880712 11.880712 13 10.5 13 C 9.1192881 13 8 11.880712 8 10.5 C 8 9.1192881 9.1192881 8 10.5 8 z "
   id="path18" />
<circle
   cx="10.5"
   cy="10.5"
   fill="#fff"
   r="2.5"
   id="circle20" />
<path
   d="m3 1v14h7.5c-.30918 0-.6121674-.031552-.9042969-.091797-2.0449062-.421713-3.5957031-2.243946-3.5957031-4.408203 0-2.4734367 2.0265633-4.5 4.5-4.5.275913 0 .544039.0336302.806641.0820312.08288.0152201.162869.0349485.24414.0546876.190071.046272.374699.1041016.554688.1738281.07451.028826.148133.0572117.220703.0898437.228613.1028198.449469.2176047.65625.3554688.0056.0037.012038.0060356.017578.0097656v-3.0605469l-2.695312-2.7050781zm7.5 8c-.7352378 0-1.3329389.5041672-1.4707031 1.193359-.0196806.098456-.0292969.201607-.0292969.306641 0 .840272.6597282 1.5 1.5 1.5.840272 0 1.5-.659728 1.5-1.5 0-.8402718-.659728-1.5-1.5-1.5zm1.724609 5.445312c-.560971.243826-1.104413.553767-1.722656.554688h2.28125z"
   fill="url(#a)"
   id="path22" />
<path
   d="m9 0v1 3.5c0 .277.223.5.5.5h3.5 1v-.5-.8632812l-3.636719-3.6367188h-.863281zm1 1 3 3h-3z"
   fill="#98989d"
   id="path24" />
<path
   d="m10 1 3 3h-3z"
   fill="url(#b)"
   id="path26" />
</svg>
